openmetadata-ui/src/main/resources/ui/src/assets/svg/icon-role-grey.svg

<svg width="16" height="16" viewBox="0 0 16 16" fill="currentColor" xmlns="http://www.w3.org/2000/svg">
<path d="M3.27514 13.7909C3.14129 13.7909 3.0332 13.6827 3.0332 13.549V12.3826C3.0332 12.2488 3.14129 12.1406 3.27514 12.1406C3.40886 12.1406 3.51707 12.2488 3.51707 12.3826V13.549C3.51707 13.6825 3.40863 13.7909 3.27514 13.7909Z" fill="currentColor" stroke="currentColor" stroke-width="0.4"/>
<path d="M8.36893 14.1456H0.741935C0.608091 14.1456 0.5 14.0375 0.5 13.9037V11.5342C0.5 9.3517 1.83844 7.39908 3.83028 6.67588C3.91273 6.64563 4.0044 6.66288 4.0702 6.7197C4.61964 7.19022 5.31284 7.44964 6.02246 7.44964C6.73539 7.44964 7.43072 7.18881 7.98039 6.71486C8.04666 6.65804 8.13916 6.64079 8.22114 6.6708C8.73549 6.85792 9.21476 7.1301 9.64559 7.48012C9.70465 7.52773 9.73785 7.60062 9.73489 7.67658C9.7323 7.7523 9.69426 7.82271 9.63212 7.86606L9.60282 7.88662L9.46981 7.6969L9.34081 7.8559C8.98782 7.56919 8.59929 7.34049 8.18381 7.17451C7.56527 7.665 6.80344 7.93375 6.02246 7.93375C5.24503 7.93375 4.48544 7.66689 3.86772 7.17959C2.1372 7.86937 0.983871 9.60166 0.983871 11.5342V13.6618H8.36893V14.1456Z" fill="currentColor" stroke="currentColor" stroke-width="0.4"/>
<path d="M6.02191 7.93325C4.05394 7.93325 2.45312 6.26581 2.45312 4.21669C2.45312 2.16744 4.05394 0.5 6.02191 0.5C7.98976 0.5 9.59093 2.1672 9.59093 4.21633C9.59093 6.26558 7.98976 7.93325 6.02191 7.93325ZM6.02191 0.983871C4.3208 0.983871 2.937 2.43407 2.937 4.21633C2.937 5.99895 4.3208 7.44915 6.02191 7.44915C7.7229 7.44915 9.10706 5.99895 9.10706 4.21633C9.10706 2.43407 7.7229 0.983871 6.02191 0.983871Z" fill="currentColor" stroke="currentColor" stroke-width="0.4"/>
<path d="M11.2902 12.9329C11.1893 12.9329 11.088 12.9238 10.9871 12.9051C10.5432 12.8227 10.1553 12.5667 9.8945 12.1837C9.6352 11.8017 9.53667 11.3439 9.61724 10.8953C9.69828 10.4458 9.95014 10.0527 10.3264 9.78796C10.7041 9.52264 11.157 9.4227 11.6014 9.50421C12.0456 9.58678 12.4332 9.8429 12.6934 10.2259L12.6954 10.2286C12.9521 10.6171 13.0498 11.074 12.971 11.514C12.8899 11.9633 12.6384 12.3564 12.2619 12.6211C11.9698 12.8262 11.6331 12.9329 11.2902 12.9329ZM11.2987 9.96008C11.0543 9.96008 10.8139 10.0365 10.6048 10.1838C10.3334 10.3745 10.1519 10.6575 10.0939 10.981C10.0358 11.3042 10.1074 11.6347 10.2952 11.9118C10.4824 12.187 10.7597 12.3707 11.0757 12.4295C11.3902 12.4875 11.7131 12.4155 11.9837 12.2253C12.2551 12.0346 12.4366 11.7516 12.4946 11.4284C12.5514 11.1116 12.4796 10.7806 12.2924 10.4964C12.1056 10.2219 11.8288 10.0384 11.513 9.97993C11.4414 9.96682 11.3701 9.96008 11.2987 9.96008Z" fill="currentColor" stroke="currentColor" stroke-width="0.3"/>
<path d="M11.352 15.4987C11.3213 15.4987 11.2901 15.4959 11.2591 15.4902L9.84105 15.2275C9.57017 15.1772 9.3964 14.9236 9.44554 14.6503L9.55871 14.0203C9.543 14.0099 9.528 13.9993 9.51406 13.9886L9.49587 13.9767L8.97254 14.3447C8.87792 14.4171 8.74584 14.4497 8.61767 14.4282C8.48524 14.4066 8.36628 14.3304 8.2908 14.2191L7.47356 13.0172C7.4022 12.9202 7.37173 12.791 7.39323 12.6608C7.41473 12.5294 7.48903 12.4106 7.59736 12.3346L8.10958 11.965C8.10545 11.9452 8.10202 11.9263 8.09895 11.9087C8.09718 11.8997 8.09576 11.8905 8.09434 11.881L7.47592 11.7664C7.34916 11.7427 7.23516 11.6667 7.16358 11.5576C7.0901 11.4453 7.06659 11.3113 7.09683 11.1799L7.35377 9.75014C7.37775 9.61653 7.45005 9.50206 7.5579 9.4274C7.66517 9.3531 7.79629 9.32569 7.92742 9.34991L8.54124 9.46391C8.55081 9.44867 8.56073 9.43414 8.57065 9.42055L8.58589 9.39586L8.22086 8.85907C8.14975 8.76255 8.11927 8.63355 8.1403 8.50337C8.1618 8.37201 8.2361 8.25305 8.34419 8.17673L9.52753 7.34496C9.62239 7.2729 9.7547 7.24101 9.88252 7.26156C10.0148 7.28306 10.1339 7.35926 10.2094 7.47054L10.5725 8.0045C10.5793 8.00284 10.586 8.00095 10.5926 7.99918C10.6005 7.99682 10.6088 7.99481 10.6172 7.99339C10.6257 7.99174 10.6344 7.9902 10.6432 7.98902L10.7566 7.35784C10.781 7.22376 10.8533 7.10964 10.9613 7.03486C11.0682 6.96079 11.1991 6.93374 11.3305 6.95772L12.7417 7.21927C13.0127 7.26948 13.1863 7.52311 13.1372 7.79646L13.0238 8.42647C13.0397 8.43686 13.0547 8.44749 13.0688 8.45812L13.0869 8.47006L13.6102 8.10207C13.705 8.02989 13.8374 7.99776 13.9652 8.01855C14.0975 8.04005 14.2166 8.11625 14.292 8.22765L15.1029 9.42906C15.1736 9.52486 15.204 9.65386 15.183 9.78393C15.1615 9.91529 15.0872 10.0344 14.9791 10.1106L14.4507 10.4817C14.4528 10.4914 14.4551 10.5009 14.4574 10.5097C14.4597 10.5175 14.4616 10.5252 14.4628 10.5335C14.4645 10.5429 14.4662 10.5524 14.4676 10.5621L15.0858 10.6767C15.3335 10.7227 15.507 10.952 15.4988 11.2214C15.4983 11.2332 15.4971 11.245 15.4949 11.2567L15.2358 12.6984C15.2116 12.8321 15.1393 12.9466 15.0311 13.0213C14.9237 13.0953 14.793 13.1218 14.6617 13.0983L14.0483 12.9843C14.0387 12.9995 14.0287 13.014 14.0188 13.0276L14.0036 13.0521L14.3687 13.5891C14.4401 13.6862 14.4705 13.8153 14.449 13.9455C14.4274 14.0769 14.3532 14.1957 14.2448 14.2717L13.0619 15.1032C12.9672 15.1755 12.8354 15.2079 12.7071 15.1868C12.575 15.1651 12.4559 15.0891 12.3802 14.9781L12.0188 14.4463C12.003 14.4495 11.9875 14.4524 11.9725 14.4552C11.9639 14.4567 11.9554 14.4584 11.9464 14.4596L11.833 15.0906C11.809 15.2242 11.7367 15.3385 11.6288 15.4133C11.5468 15.4694 11.4512 15.4987 11.352 15.4987ZM9.49776 13.4376C9.55706 13.4376 9.61613 13.4595 9.66232 13.5023C9.68701 13.5251 9.71536 13.5422 9.74359 13.5609L9.799 13.5976C9.82321 13.6156 9.85901 13.6399 9.92918 13.6724C10.0291 13.7186 10.0855 13.8264 10.0659 13.9349L9.92197 14.7359L11.3474 15.0144L11.5008 14.2034C11.5177 14.109 11.5883 14.0341 11.6816 14.0111C11.7313 13.999 11.7802 13.9924 11.8274 13.9866C11.8472 13.984 11.8666 13.9818 11.8852 13.9785C11.9145 13.973 11.9856 13.9598 12.0313 13.9416C12.1373 13.8993 12.258 13.9363 12.3217 14.03L12.7807 14.7052L13.9666 13.8751L13.5091 13.1856C13.4467 13.0936 13.4546 12.971 13.5289 12.8882C13.5515 12.8631 13.5684 12.834 13.5868 12.805L13.6231 12.7489C13.6407 12.7245 13.6649 12.6874 13.6976 12.6151C13.7431 12.5135 13.8507 12.4569 13.9625 12.4762L14.7502 12.6223L15.0147 11.193C15.0124 11.1683 15.002 11.1536 14.9974 11.1526L14.2097 11.0065C14.1157 10.989 14.0407 10.9176 14.0186 10.8243C14.0065 10.7742 14.0005 10.7253 13.9947 10.6784C13.9927 10.6612 13.9908 10.644 13.9883 10.6279C13.9818 10.6029 13.976 10.5768 13.9707 10.5499C13.9649 10.5224 13.9601 10.4935 13.9502 10.4677C13.9093 10.3638 13.9451 10.2458 14.0361 10.1814L14.7004 9.71458L13.8911 8.49876L13.2241 8.96503C13.1305 9.0306 13.0042 9.02209 12.9204 8.94448C12.8958 8.92168 12.8675 8.90455 12.8391 8.88588L12.7837 8.84914C12.7595 8.83119 12.7235 8.8065 12.6536 8.77437C12.5535 8.72865 12.497 8.6202 12.5166 8.51188L12.6609 7.71082L11.2423 7.43356L11.089 8.24454C11.0721 8.33846 11.0017 8.41359 10.9092 8.43662C10.8591 8.44891 10.8106 8.45553 10.7633 8.46131C10.7469 8.46344 10.7307 8.46545 10.7152 8.46781C10.6903 8.47443 10.6642 8.48045 10.6379 8.486C10.6114 8.49156 10.5839 8.4964 10.5597 8.50609C10.4542 8.54991 10.3327 8.51258 10.2683 8.4182L9.80939 7.74295L8.62346 8.57283L9.08099 9.26237C9.1436 9.35451 9.13533 9.47749 9.06067 9.56018C9.03834 9.58511 9.02168 9.6137 9.00349 9.6424L8.96699 9.69911C8.94939 9.72344 8.92517 9.76054 8.89245 9.83283C8.84697 9.93443 8.74006 9.99101 8.62759 9.97176L7.83977 9.82563L7.57149 11.2772L8.3527 11.4364C8.44661 11.4538 8.52139 11.525 8.54384 11.6178C8.55589 11.6684 8.56227 11.7175 8.56805 11.7649C8.57042 11.7852 8.5729 11.8051 8.57597 11.8242C8.58105 11.853 8.59393 11.9267 8.61259 11.9749C8.65299 12.0777 8.61838 12.1947 8.52883 12.2592L7.87828 12.7286L8.69138 13.9467L9.35895 13.4812C9.40077 13.4522 9.44944 13.4376 9.49776 13.4376Z" fill="currentColor" stroke="currentColor" stroke-width="0.3"/>
</svg>

<svg xmlns="http://www.w3.org/2000/svg" width="16" height="16" fill="currentColor"><path stroke="currentColor" stroke-width=".4" d="M3.275 13.79a.242.242 0 0 1-.242-.241v-1.166a.242.242 0 1 1 .484 0v1.166a.242.242 0 0 1-.242.242Z"/><path stroke="currentColor" stroke-width=".4" d="M8.369 14.146H.742a.242.242 0 0 1-.242-.242v-2.37C.5 9.352 1.838 7.4 3.83 6.676a.24.24 0 0 1 .24.044c.55.47 1.243.73 1.952.73.713 0 1.409-.261 1.958-.735a.243.243 0 0 1 .241-.044c.514.187.994.46 1.425.81a.241.241 0 0 1-.013.386l-.03.02-.133-.19-.13.159a4.453 4.453 0 0 0-1.156-.681c-.619.49-1.38.759-2.162.759a3.484 3.484 0 0 1-2.154-.754C2.138 7.87.984 9.602.984 11.534v2.128h7.385v.484Z"/><path stroke="currentColor" stroke-width=".4" d="M6.022 7.933c-1.968 0-3.569-1.667-3.569-3.716C2.453 2.167 4.053.5 6.022.5 7.99.5 9.59 2.167 9.59 4.216c0 2.05-1.601 3.717-3.57 3.717Zm0-6.95c-1.701 0-3.085 1.451-3.085 3.233C2.937 6 4.321 7.45 6.022 7.45c1.7 0 3.085-1.45 3.085-3.233 0-1.782-1.384-3.232-3.085-3.232Z"/><path stroke="currentColor" stroke-width=".3" d="M11.29 12.933a1.69 1.69 0 0 1-1.396-.75 1.737 1.737 0 0 1-.277-1.288 1.72 1.72 0 0 1 .71-1.107c.377-.265.83-.365 1.274-.284.445.083.832.339 1.092.722l.002.003c.257.388.355.845.276 1.285a1.72 1.72 0 0 1-.71 1.107 1.686 1.686 0 0 1-.97.312ZM11.3 9.96c-.245 0-.485.076-.694.224-.272.19-.453.474-.511.797-.058.323.013.654.201.93.187.276.465.46.78.519.315.058.638-.014.909-.205.271-.19.453-.473.51-.797a1.281 1.281 0 0 0-.202-.932 1.206 1.206 0 0 0-.993-.536Z"/><path stroke="currentColor" stroke-width=".3" d="M11.352 15.499a.515.515 0 0 1-.093-.009l-1.418-.263a.492.492 0 0 1-.395-.577l.113-.63a.787.787 0 0 1-.045-.031l-.018-.012-.523.368a.465.465 0 0 1-.355.083.492.492 0 0 1-.327-.209l-.817-1.202a.473.473 0 0 1-.08-.356.499.499 0 0 1 .203-.326l.513-.37a1.726 1.726 0 0 1-.016-.084l-.618-.115a.482.482 0 0 1-.38-.586l.258-1.43a.488.488 0 0 1 .574-.4l.613.114.03-.043.015-.025-.365-.537a.474.474 0 0 1-.08-.356.5.5 0 0 1 .203-.326l1.184-.832a.472.472 0 0 1 .355-.083.492.492 0 0 1 .326.209l.364.534.02-.006a.452.452 0 0 1 .05-.01l.114-.631a.488.488 0 0 1 .574-.4l1.41.261c.272.05.445.304.396.577l-.113.63c.016.01.03.021.045.032l.018.012.523-.368a.47.47 0 0 1 .355-.083.492.492 0 0 1 .327.209l.81 1.201c.072.096.102.225.081.355a.5.5 0 0 1-.204.327l-.528.37a.684.684 0 0 0 .012.053l.005.028.618.115a.523.523 0 0 1 .409.58l-.26 1.441a.494.494 0 0 1-.204.323.492.492 0 0 1-.37.077l-.613-.114a.797.797 0 0 1-.03.044l-.014.024.365.537a.473.473 0 0 1 .08.356.499.499 0 0 1-.204.327l-1.183.831a.467.467 0 0 1-.355.084.495.495 0 0 1-.327-.209l-.361-.532a3.064 3.064 0 0 1-.046.01c-.01 0-.018.002-.027.004l-.113.63a.488.488 0 0 1-.481.408Zm-1.854-2.061c.06 0 .118.021.164.064.025.023.053.04.082.059l.055.037a.69.69 0 0 0 .13.074c.1.047.156.154.137.263l-.144.8 1.425.28.154-.812a.242.242 0 0 1 .18-.192c.05-.012.1-.019.146-.024l.058-.008c.03-.006.1-.02.146-.037a.242.242 0 0 1 .29.088l.46.675 1.186-.83-.458-.69a.242.242 0 0 1 .02-.297c.023-.025.04-.054.058-.083l.036-.056a.73.73 0 0 0 .075-.134.242.242 0 0 1 .264-.139l.788.146.265-1.429c-.003-.025-.013-.04-.018-.04l-.787-.146a.242.242 0 0 1-.191-.183c-.012-.05-.018-.099-.024-.146l-.007-.05a1.341 1.341 0 0 1-.017-.078c-.006-.028-.01-.057-.02-.082a.242.242 0 0 1 .085-.287l.664-.466-.809-1.216-.667.466a.242.242 0 0 1-.304-.02c-.024-.023-.053-.04-.08-.06l-.056-.036a.68.68 0 0 0-.13-.075.242.242 0 0 1-.137-.262l.144-.801-1.419-.277-.153.81a.242.242 0 0 1-.18.193c-.05.012-.098.019-.146.024l-.048.007a1.543 1.543 0 0 1-.077.018c-.027.006-.054.01-.078.02a.241.241 0 0 1-.292-.088l-.459-.675-1.186.83.458.69a.242.242 0 0 1-.02.297c-.023.025-.04.054-.058.082l-.036.057a.727.727 0 0 0-.075.134.242.242 0 0 1-.264.139l-.788-.146-.269 1.451.782.16a.242.242 0 0 1 .19.18c.013.051.02.1.025.148l.008.06c.005.028.018.102.037.15.04.103.005.22-.084.284l-.65.47.812 1.218.668-.466a.244.244 0 0 1 .139-.043Z"/></svg>
